**kern	**silbe	**kern	**silbe	**harmony	**phrase	**leadinstrument	**rhyme	**timestamp	**harte
*ICvox	*	*ICvox	*	*M4/4	*	*	*	*	*M4/4
*VRlead	*	*VRharmonize*VRresponse	*	*	*	*	*	*	*
*Hstimme	*	*Nstimme	*	*	*	*	*	*	*
*e-:	*	*e-:	*	*e-:	*	*	*	*	*e-:
*M4/4	*	*M4/4	*	*	*	*	*	*	*
*clefF4	*	*clefG2	*	*	*	*	*	*	*
r;	.	r;	.	1r;	.	r	.	0	N.C.
=1	=1	=1	=1	=1	=1	=1	=1	=1	=1
*>Letter>A	*>Letter>A	*>Letter>A	*>Letter>A	*>Letter>A	*>Letter>A	*>Letter>A	*>Letter>A	*>Letter>A	*>Letter>A
*>Label>Intro	*>Label>Intro	*>Label>Intro	*>Label>Intro	*>Label>Intro	*>Label>Intro	*>Label>Intro	*>Label>Intro	*>Label>Intro	*>Label>Intro
1r	.	1r	.	1N;	newline	r	.	0.348	N.C.
=2	=2	=2	=2	=2	=2	=2	=2	=2	=2
*>Letter>B	*>Letter>B	*>Letter>B	*>Letter>B	*>Letter>B	*>Letter>B	*>Letter>B	*>Letter>B	*>Letter>B	*>Letter>B
*>Label>Chorus	*>Label>Chorus	*>Label>Chorus	*>Label>Chorus	*>Label>Chorus	*>Label>Chorus	*>Label>Chorus	*>Label>Chorus	*>Label>Chorus	*>Label>Chorus
8E-	War	8e-	War	2E-m	newline	voice	.	4.853	E-:min
8r	.	8r	.	.	.	.	.	.	.
4r	.	4r	.	.	.	.	.	.	.
8~E-	Huh!	8~e-	Huh!	2G-M	.	voice	.	5.953	G-:maj
8r	.	8r	.	.	.	.	.	.	.
4r	.	4r	.	.	.	.	.	.	.
=3	=3	=3	=3	=3	=3	=3	=3	=3	=3
16e-	Yeah	2r	.	2E-m	.	voice	.	7.052	E-:1
16d-	_	.	.	.	.	.	.	.	.
8B-	_	.	.	.	.	.	.	.	.
4r	.	.	.	.	.	.	.	.	.
2r	.	8d-	What	4A-m	.	voice	.	8.152	A-:1
.	.	4e-	is	.	.	.	.	.	.
.	.	.	.	4G-M	.	voice	.	8.702	G-:maj
.	.	8d-	it	.	.	.	.	.	.
=4	=4	=4	=4	=4	=4	=4	=4	=4	=4
2r	.	4~g-	good	2E-m	.	voice	.	9.252	E-:min
.	.	8~e-	for?	.	.	.	.	.	.
.	.	8r	.	.	.	.	.	.	.
8d-	ab-	2r	.	2G-M	.	voice	.	10.352	G-:maj
8e-	-so-	.	.	.	.	.	.	.	.
8e-	-lu-	.	.	.	.	.	.	.	.
8d-	-tely	.	.	.	.	.	.	.	.
=5	=5	=5	=5	=5	=5	=5	=5	=5	=5
4r	.	16~e-	No-	2E-m	.	voice	.	11.451	E-:1
.	.	16~G-	-thin'	.	.	.	.	.	.
.	.	8r	.	.	.	.	.	.	.
8D-	Ah	4r	.	.	.	.	.	.	.
4E-	ha	.	.	.	.	.	.	.	.
.	.	2r	.	4A-m	.	voice	.	12.551	A-:1
8G-	_	.	.	.	.	.	.	.	.
16E-	_	.	.	4G-M	.	voice	.	13.101	G-:maj
16D-	_	.	.	.	.	.	.	.	.
8BB-	_	.	.	.	.	.	.	.	.
=6	=6	=6	=6	=6	=6	=6	=6	=6	=6
2r	.	8e-	War	2E-m	newline	voice	.	13.651	E-:min
.	.	8r	.	.	.	.	.	.	.
.	.	4r	.	.	.	.	.	.	.
8~E-	Huh!	8~e-	Huh!	2G-M	.	voice	.	14.726	G-:maj
8r	.	8r	.	.	.	.	.	.	.
8r	.	4r	.	.	.	.	.	.	.
16e-	Yeah	.	.	.	.	.	.	.	.
16d-	_	.	.	.	.	.	.	.	.
=7	=7	=7	=7	=7	=7	=7	=7	=7	=7
8B-	_	2r	.	2E-m	.	voice	.	15.802	E-:1
8r	.	.	.	.	.	.	.	.	.
4r	.	.	.	.	.	.	.	.	.
2r	.	8d-	What	4A-m	.	voice	.	16.877	A-:1
.	.	4e-	is	.	.	.	.	.	.
.	.	.	.	4G-M	.	voice	.	17.415	G-:maj
.	.	8d-	it	.	.	.	.	.	.
=8	=8	=8	=8	=8	=8	=8	=8	=8	=8
2r	.	4~g-	good	2E-m	.	voice	.	17.953	E-:min
.	.	8~e-	for?	.	.	.	.	.	.
.	.	8r	.	.	.	.	.	.	.
8d-	ab-	2r	.	2G-M	.	voice	.	19.028	G-:maj
8e-	-so-	.	.	.	.	.	.	.	.
8e-	-lu-	.	.	.	.	.	.	.	.
8d-	-tely	.	.	.	.	.	.	.	.
=9	=9	=9	=9	=9	=9	=9	=9	=9	=9
4r	.	16~e-	No-	2E-m	.	voice	.	20.104	E-:1
.	.	16~G-	-thin'	.	.	.	.	.	.
.	.	8r	.	.	.	.	.	.	.
16g-	Say	4r	.	.	.	.	.	.	.
16g-	it	.	.	.	.	.	.	.	.
16g-	a-	.	.	.	.	.	.	.	.
[16e-	-gain	.	.	.	.	.	.	.	.
8e-]	_	2r	.	4A-m	.	voice	.	21.179	A-:1
16B-	ya'll	.	.	.	.	.	.	.	.
16A-	_	.	.	.	.	.	.	.	.
8G-	_	.	.	4G-M	.	voice	.	21.717	G-:maj
8r	.	.	.	.	.	.	.	.	.
=10	=10	=10	=10	=10	=10	=10	=10	=10	=10
4.r	.	8e-	War	2E-m	newline	voice	.	22.255	E-:min
.	.	8r	.	.	.	.	.	.	.
.	.	4r	.	.	.	.	.	.	.
8~E-	Huh!	.	.	.	.	.	.	.	.
8r	.	8~e-	Huh!	2G-M	.	voice	.	23.328	G-:maj
8~G-	Good	8r	.	.	.	.	.	.	.
8~E-	god!	4r	.	.	.	.	.	.	.
8r	.	.	.	.	.	.	.	.	.
=11	=11	=11	=11	=11	=11	=11	=11	=11	=11
1r	.	2r	.	2E-m	.	voice	.	24.402	E-:1
.	.	8d-	What	4A-m	.	voice	.	25.475	A-:1
.	.	4e-	is	.	.	.	.	.	.
.	.	.	.	4G-M	.	voice	.	26.012	G-:maj
.	.	8d-	it	.	.	.	.	.	.
=12	=12	=12	=12	=12	=12	=12	=12	=12	=12
2r	.	4~g-	good	2E-m	.	voice	.	26.549	E-:min
.	.	8~e-	for?	.	.	.	.	.	.
.	.	8r	.	.	.	.	.	.	.
8d-	ab-	2r	.	2G-M	.	voice	.	27.622	G-:maj
8e-	-so-	.	.	.	.	.	.	.	.
8e-	-lu-	.	.	.	.	.	.	.	.
8d-	-tely	.	.	.	.	.	.	.	.
=13	=13	=13	=13	=13	=13	=13	=13	=13	=13
8r	.	16~e-	No-	2E-m	.	voice	.	28.696	E-:1
.	.	16~G-	-thin'	.	.	.	.	.	.
16~G-	Lis-	8r	.	.	.	.	.	.	.
16~G-	-ten	.	.	.	.	.	.	.	.
16~E-	to	4r	.	.	.	.	.	.	.
16~GG-	me	.	.	.	.	.	.	.	.
8r	.	.	.	.	.	.	.	.	.
*clefG2	*	*	*	*	*	*	*	*	*
2ee-	Ah	2r	.	4A-m	.	voice	.	29.769	A-:1
.	.	.	.	4G-M	.	voice	.	30.306	G-:maj
=14	=14	=14	=14	=14	=14	=14	=14	=14	=14
*>Letter>C	*>Letter>C	*>Letter>C	*>Letter>C	*>Letter>C	*>Letter>C	*>Letter>C	*>Letter>C	*>Letter>C	*>Letter>C
*>Label>Verse	*>Label>Verse	*>Label>Verse	*>Label>Verse	*>Label>Verse	*>Label>Verse	*>Label>Verse	*>Label>Verse	*>Label>Verse	*>Label>Verse
4ee-	war!	4e-	War	1E-m	newline	voice	.	30.843	E-:min
4r	.	4r	.	.	.	.	.	.	.
4e-	I	2r	.	.	.	.	.	.	.
8e-	de-	.	.	.	.	.	.	.	.
8B-	-spise	.	.	.	.	.	.	.	.
=15	=15	=15	=15	=15	=15	=15	=15	=15	=15
4G-	_	1r	.	1E-m	.	voice	.	33.081	E-:min
4r	.	.	.	.	.	.	.	.	.
4r	.	.	.	.	.	.	.	.	.
8e-	'cause	.	.	.	.	.	.	.	.
8e-	it	.	.	.	.	.	.	.	.
=16	=16	=16	=16	=16	=16	=16	=16	=16	=16
4b-	means	1r	.	1E-m	.	voice	.	35.32	E-:min
8a-	de-	.	.	.	.	.	.	.	.
4b-	-struc-	.	.	.	.	.	.	.	.
8dd-	-tion	.	.	.	.	.	.	.	.
8r	.	.	.	.	.	.	.	.	.
8d-	of	.	.	.	.	.	.	.	.
=17	=17	=17	=17	=17	=17	=17	=17	=17	=17
16e-	in-	1r	.	1E-m	.	voice	.	37.558	E-:min
16e-	-noc-	.	.	.	.	.	.	.	.
8e-	-cent	.	.	.	.	.	.	.	.
8d-	lives	.	.	.	.	.	A	.	.
8G-	_	.	.	.	.	.	.	.	.
2r	.	.	.	.	.	.	.	.	.
=18	=18	=18	=18	=18	=18	=18	=18	=18	=18
8b-	War	1r	.	1E-m	newline	voice	.	39.796	E-:min
8a-	means	.	.	.	.	.	.	.	.
8g-	_	.	.	.	.	.	.	.	.
8b-	tears	.	.	.	.	.	.	.	.
8b-	_	.	.	.	.	.	.	.	.
8r	.	.	.	.	.	.	.	.	.
8r	.	.	.	.	.	.	.	.	.
16d-	to	.	.	.	.	.	.	.	.
[16e-	thous-	.	.	.	.	.	.	.	.
=19	=19	=19	=19	=19	=19	=19	=19	=19	=19
16e-]	_	1r	.	1E-m	.	voice	.	42.061	E-:min
16e-	-ands	.	.	.	.	.	.	.	.
8d-	of	.	.	.	.	.	.	.	.
8e-	mo-	.	.	.	.	.	.	.	.
16d-	-thers	.	.	.	.	.	.	.	.
[16g-	eyes	.	.	.	.	.	A	.	.
16g-]	_	.	.	.	.	.	.	.	.
8g-	_	.	.	.	.	.	.	.	.
16r	.	.	.	.	.	.	.	.	.
16r	.	.	.	.	.	.	.	.	.
16d-	when	.	.	.	.	.	.	.	.
8e-	their	.	.	.	.	.	.	.	.
=20	=20	=20	=20	=20	=20	=20	=20	=20	=20
8.b-	sons	1r	.	1E-m	.	voice	.	44.326	E-:min
8a-	go	.	.	.	.	.	.	.	.
16e-	to	.	.	.	.	.	.	.	.
[8g-	fight	.	.	.	.	.	A	.	.
8g-]	_	.	.	.	.	.	.	.	.
8r	.	.	.	.	.	.	.	.	.
8r	.	.	.	.	.	.	.	.	.
8d-	and	.	.	.	.	.	.	.	.
=21	=21	=21	=21	=21	=21	=21	=21	=21	=21
8e-	lose	1r	.	1E-m	.	voice	.	46.591	E-:min
4e-	their	.	.	.	.	.	.	.	.
8d-	lives	.	.	.	.	.	A	.	.
8r	.	.	.	.	.	.	.	.	.
8~e-	I	.	.	.	.	.	.	.	.
4~g-	said	.	.	.	.	.	.	.	.
=22	=22	=22	=22	=22	=22	=22	=22	=22	=22
*>Letter>B	*>Letter>B	*>Letter>B	*>Letter>B	*>Letter>B	*>Letter>B	*>Letter>B	*>Letter>B	*>Letter>B	*>Letter>B
*>Label>Chorus	*>Label>Chorus	*>Label>Chorus	*>Label>Chorus	*>Label>Chorus	*>Label>Chorus	*>Label>Chorus	*>Label>Chorus	*>Label>Chorus	*>Label>Chorus
4~b-	war!	8e-	War	2E-m	newline	voice	.	48.856	E-:min
.	.	8r	.	.	.	.	.	.	.
4r	.	4r	.	.	.	.	.	.	.
*clefF4	*	*	*	*	*	*	*	*	*
4~E-	Huh!	8~e-	Huh!	2G-M	.	voice	.	49.958	G-:maj
.	.	8r	.	.	.	.	.	.	.
8r	.	4r	.	.	.	.	.	.	.
8~G-	Good	.	.	.	.	.	.	.	.
=23	=23	=23	=23	=23	=23	=23	=23	=23	=23
4~E-	god	2r	.	2E-m	.	voice	.	51.06	E-:1
4~GG-	ya'll!	.	.	.	.	.	.	.	.
2r	.	8d-	What	4A-m	.	voice	.	52.162	A-:1
.	.	4e-	is	.	.	.	.	.	.
.	.	.	.	4G-M	.	voice	.	52.714	G-:maj
.	.	8d-	it	.	.	.	.	.	.
=24	=24	=24	=24	=24	=24	=24	=24	=24	=24
2r	.	4~g-	good	2E-m	.	voice	.	53.265	E-:min
.	.	8~e-	for?	.	.	.	.	.	.
.	.	8r	.	.	.	.	.	.	.
8d-	ab-	2r	.	2G-M	.	voice	.	54.367	G-:maj
8e-	-so-	.	.	.	.	.	.	.	.
8e-	-lu-	.	.	.	.	.	.	.	.
8d-	-tely	.	.	.	.	.	.	.	.
=25	=25	=25	=25	=25	=25	=25	=25	=25	=25
8r	.	16~e-	No-	2E-m	.	voice	.	55.469	E-:1
.	.	16~G-	-thin'	.	.	.	.	.	.
8~G-	Get	8r	.	.	.	.	.	.	.
16E-	say	4r	.	.	.	.	.	.	.
16E-	it	.	.	.	.	.	.	.	.
16E-	a-	.	.	.	.	.	.	.	.
8.GG-	_	.	.	.	.	.	.	.	.
.	.	2r	.	4A-m	.	voice	.	56.571	A-:1
8r	.	.	.	.	.	.	.	.	.
4r	.	.	.	4G-M	.	voice	.	57.122	G-:maj
=26	=26	=26	=26	=26	=26	=26	=26	=26	=26
2r	.	8e-	War	2E-m	newline	voice	.	57.673	E-:min
.	.	8r	.	.	.	.	.	.	.
.	.	4r	.	.	.	.	.	.	.
8d-	Woh	8~e-	Huh!	2G-M	.	voice	.	58.762	G-:maj
8e-	_	8r	.	.	.	.	.	.	.
8e-	woh	4r	.	.	.	.	.	.	.
8g-	_	.	.	.	.	.	.	.	.
=27	=27	=27	=27	=27	=27	=27	=27	=27	=27
8g-	woh	2r	.	2E-m	.	voice	.	59.85	E-:1
8e-	_	.	.	.	.	.	.	.	.
16e-	Lord	.	.	.	.	.	.	.	.
16d-	_	.	.	.	.	.	.	.	.
8B-	_	.	.	.	.	.	.	.	.
2r	.	8d-	What	4A-m	.	voice	.	60.938	A-:1
.	.	4e-	is	.	.	.	.	.	.
.	.	.	.	4G-M	.	voice	.	61.482	G-:maj
.	.	8d-	it	.	.	.	.	.	.
=28	=28	=28	=28	=28	=28	=28	=28	=28	=28
2r	.	4~g-	good	2E-m	.	voice	.	62.026	E-:min
.	.	8~e-	for?	.	.	.	.	.	.
.	.	8r	.	.	.	.	.	.	.
8d-	ab-	2r	.	2G-M	.	voice	.	63.114	G-:maj
8e-	-so-	.	.	.	.	.	.	.	.
8e-	-lu-	.	.	.	.	.	.	.	.
8d-	-tely	.	.	.	.	.	.	.	.
=29	=29	=29	=29	=29	=29	=29	=29	=29	=29
8r	.	16~e-	No-	2E-m	.	voice	.	64.202	E-:1
.	.	16~B-	-thin'	.	.	.	.	.	.
16~G-	Lis-	8r	.	.	.	.	.	.	.
16~G-	-ten	.	.	.	.	.	.	.	.
16~E-	to	4r	.	.	.	.	.	.	.
16~GG-	me	.	.	.	.	.	.	.	.
8r	.	.	.	.	.	.	.	.	.
2r	.	2r	.	4A-m	.	voice	.	65.29	A-:1
.	.	.	.	4G-M	.	voice	.	65.834	G-:maj
=30	=30	=30	=30	=30	=30	=30	=30	=30	=30
*clefG2	*	*	*	*	*	*	*	*	*
4r	.	8e- 8g-	War	2E-m	newline	voice	.	66.378	E-:min
.	.	8r	.	.	.	.	.	.	.
16r	.	4r	.	.	.	.	.	.	.
16g-	It	.	.	.	.	.	.	.	.
8a-	ain't	.	.	.	.	.	.	.	.
8b-	no-	2r	.	2G-M	.	voice	.	67.458	G-:maj
8~a-	-thin'	.	.	.	.	.	.	.	.
16r	.	.	.	.	.	.	.	.	.
16~g-	but	.	.	.	.	.	.	.	.
8~a-	a	.	.	.	.	.	.	.	.
=31	=31	=31	=31	=31	=31	=31	=31	=31	=31
8~b-	heart-	1r	.	2E-m	.	voice	.	68.539	E-:1
8~b-	-break	.	.	.	.	.	B	.	.
4r	.	.	.	.	.	.	.	.	.
2r	.	.	.	4A-m	.	voice	.	69.619	A-:1
.	.	.	.	4G-M	.	voice	.	70.159	G-:maj
=32	=32	=32	=32	=32	=32	=32	=32	=32	=32
4r	.	8e- 8g-	War	2E-m	.	voice	.	70.699	E-:min
.	.	8r	.	.	.	.	.	.	.
4b-	Friend	4r	.	.	.	.	.	.	.
8b-	on-	2r	.	2G-M	.	voice	.	71.78	G-:maj
8g-	-ly	.	.	.	.	.	.	.	.
8r	.	.	.	.	.	.	.	.	.
16g-	to	.	.	.	.	.	.	.	.
16a-	the	.	.	.	.	.	.	.	.
=33	=33	=33	=33	=33	=33	=33	=33	=33	=33
16~b-	un-	1r	.	2E-m	.	voice	.	72.86	E-:1
8~g-	-der-	.	.	.	.	.	.	.	.
16~g-	-ta-	.	.	.	.	.	(B	.	.
8~e-	-ker	.	.	.	.	.	b)	.	.
8r	.	.	.	.	.	.	.	.	.
*clefG2	*	*	*	*	*	*	*	*	*
2ee-	Ah	.	.	4A-m	.	voice	.	73.94	A-:1
.	.	.	.	4G-M	.	voice	.	74.481	G-:maj
=34	=34	=34	=34	=34	=34	=34	=34	=34	=34
*>Letter>C	*>Letter>C	*>Letter>C	*>Letter>C	*>Letter>C	*>Letter>C	*>Letter>C	*>Letter>C	*>Letter>C	*>Letter>C
*>Label>Verse	*>Label>Verse	*>Label>Verse	*>Label>Verse	*>Label>Verse	*>Label>Verse	*>Label>Verse	*>Label>Verse	*>Label>Verse	*>Label>Verse
4ee-	war!	1r	.	1E-m	newline	voice	.	75.021	E-:min
8r	.	.	.	.	.	.	.	.	.
16b-	It's	.	.	.	.	.	.	.	.
16a-	an	.	.	.	.	.	.	.	.
16g-	en-	.	.	.	.	.	.	.	.
16a-	-e-	.	.	.	.	.	.	.	.
8b-	-my	.	.	.	.	.	.	.	.
8r	.	.	.	.	.	.	.	.	.
8d-	to	.	.	.	.	.	.	.	.
=35	=35	=35	=35	=35	=35	=35	=35	=35	=35
8e-	all	1r	.	1E-m	.	voice	.	77.293	E-:min
4e-	man-	.	.	.	.	.	.	.	.
8d-	-kind	.	.	.	.	.	A	.	.
2r	.	.	.	.	.	.	.	.	.
=36	=36	=36	=36	=36	=36	=36	=36	=36	=36
8r	.	1r	.	1E-m	.	voice	.	79.565	E-:min
8b-	The	.	.	.	.	.	.	.	.
16dd-	point	.	.	.	.	.	.	.	.
8b-	of	.	.	.	.	.	.	.	.
16a-	war	.	.	.	.	.	.	.	.
16g-	_	.	.	.	.	.	.	.	.
8.e-	_	.	.	.	.	.	.	.	.
8r	.	.	.	.	.	.	.	.	.
[8b-	blows	.	.	.	.	.	.	.	.
=37	=37	=37	=37	=37	=37	=37	=37	=37	=37
8b-]	_	1r	.	1E-m	.	voice	.	81.836	E-:min
8d-	_	.	.	.	.	.	.	.	.
8e-	my	.	.	.	.	.	.	.	.
8d-	mind	.	.	.	.	.	A	.	.
2r	.	.	.	.	.	.	.	.	.
=38	=38	=38	=38	=38	=38	=38	=38	=38	=38
16b-	War	1r	.	1E-m	newline	voice	.	84.108	E-:min
8a-	has	.	.	.	.	.	.	.	.
8g-	caused	.	.	.	.	.	.	.	.
8e-	un-	.	.	.	.	.	.	.	.
8b-	-rest	.	.	.	.	.	.	.	.
16b-	_	.	.	.	.	.	.	.	.
8r	.	.	.	.	.	.	.	.	.
16r	.	.	.	.	.	.	.	.	.
16d-	wi-	.	.	.	.	.	.	.	.
16e-	-thin	.	.	.	.	.	.	.	.
16d-	the	.	.	.	.	.	.	.	.
=39	=39	=39	=39	=39	=39	=39	=39	=39	=39
8e-	young-	1r	.	1E-m	.	voice	.	86.364	E-:min
16d-	-er	.	.	.	.	.	.	.	.
16e-	gen-	.	.	.	.	.	.	.	.
16d-	-er-	.	.	.	.	.	.	.	.
8.g-	-a-	.	.	.	.	.	.	.	.
8e-	-tion	.	.	.	.	.	c	.	.
8r	.	.	.	.	.	.	.	.	.
8r	.	.	.	.	.	.	.	.	.
8~d-	In-	.	.	.	.	.	.	.	.
=40	=40	=40	=40	=40	=40	=40	=40	=40	=40
8~g-	-duc-	1r	.	1E-m	.	voice	(C	88.621	E-:min
8~e-	-tion	.	.	.	.	.	c)	.	.
12r	.	.	.	.	.	.	.	.	.
12~e-	the	.	.	.	.	.	.	.	.
12~d-	de-	.	.	.	.	.	.	.	.
8~g-	-struc-	.	.	.	.	.	(C	.	.
8~e-	-tion	.	.	.	.	.	c)	.	.
16r	.	.	.	.	.	.	.	.	.
16~d-	Who	.	.	.	.	.	.	.	.
8~B-	wants	.	.	.	.	.	.	.	.
=41	=41	=41	=41	=41	=41	=41	=41	=41	=41
16~G-	to	1r	.	1E-m	.	voice	.	90.877	E-:min
8.~E-	die?	.	.	.	.	.	.	.	.
8r	.	.	.	.	.	.	.	.	.
[8ee-	Ah	.	.	.	.	.	.	.	.
2ee-]	_	.	.	.	.	.	.	.	.
=42	=42	=42	=42	=42	=42	=42	=42	=42	=42
*>Letter>B	*>Letter>B	*>Letter>B	*>Letter>B	*>Letter>B	*>Letter>B	*>Letter>B	*>Letter>B	*>Letter>B	*>Letter>B
*>Label>Chorus	*>Label>Chorus	*>Label>Chorus	*>Label>Chorus	*>Label>Chorus	*>Label>Chorus	*>Label>Chorus	*>Label>Chorus	*>Label>Chorus	*>Label>Chorus
4ee-	war!	8e-	War	2E-m	newline	voice	.	93.133	E-:min
.	.	8r	.	.	.	.	.	.	.
*clefF4	*	*	*	*	*	*	*	*	*
8r	.	4r	.	.	.	.	.	.	.
8~G-	Good	.	.	.	.	.	.	.	.
4~E-	god	8~e-	Huh!	2G-M	.	voice	.	94.233	G-:maj
.	.	8r	.	.	.	.	.	.	.
4~GG-	ya'll!	4r	.	.	.	.	.	.	.
=43	=43	=43	=43	=43	=43	=43	=43	=43	=43
1r	.	2r	.	2E-m	.	voice	.	95.334	E-:1
.	.	8d-	What	4A-m	.	voice	.	96.434	A-:1
.	.	4e-	is	.	.	.	.	.	.
.	.	.	.	4G-M	.	voice	.	96.984	G-:maj
.	.	8d-	it	.	.	.	.	.	.
=44	=44	=44	=44	=44	=44	=44	=44	=44	=44
*clefG2	*	*	*	*	*	*	*	*	*
2r	.	4~g-	good	2E-m	.	voice	.	97.534	E-:min
.	.	8~e-	for?	.	.	.	.	.	.
.	.	8r	.	.	.	.	.	.	.
8d-	ab-	2r	.	2G-M	.	voice	.	98.635	G-:maj
8e-	-so-	.	.	.	.	.	.	.	.
8e-	-lu-	.	.	.	.	.	.	.	.
8d-	-tely	.	.	.	.	.	.	.	.
=45	=45	=45	=45	=45	=45	=45	=45	=45	=45
4r	.	16~e-	No-	2E-m	.	voice	.	99.735	E-:1
.	.	16~G-	-thin'	.	.	.	.	.	.
.	.	8r	.	.	.	.	.	.	.
16e-	Say	4r	.	.	.	.	.	.	.
16g-	it	.	.	.	.	.	.	.	.
8r	.	.	.	.	.	.	.	.	.
16g-	say	2r	.	4A-m	.	voice	.	100.835	A-:1
16a-	it	.	.	.	.	.	.	.	.
8r	.	.	.	.	.	.	.	.	.
16a-	say	.	.	4G-M	.	voice	.	101.385	G-:maj
8.b-	it!	.	.	.	.	.	.	.	.
=46	=46	=46	=46	=46	=46	=46	=46	=46	=46
4r	.	8e-	War	2E-m	newline	voice	.	101.936	E-:min
.	.	8r	.	.	.	.	.	.	.
8r	.	4r	.	.	.	.	.	.	.
8e-	Uh-	.	.	.	.	.	.	.	.
4g-	-huh	8~e-	Huh!	2G-M	.	voice	.	103.033	G-:maj
.	.	8r	.	.	.	.	.	.	.
4e-	yeah	4r	.	.	.	.	.	.	.
=47	=47	=47	=47	=47	=47	=47	=47	=47	=47
4~E-	Huh!	2r	.	2E-m	.	voice	.	104.13	E-:1
4r	.	.	.	.	.	.	.	.	.
2r	.	8d-	What	4A-m	.	voice	.	105.227	A-:1
.	.	4e-	is	.	.	.	.	.	.
.	.	.	.	4G-M	.	voice	.	105.775	G-:maj
.	.	8d-	it	.	.	.	.	.	.
=48	=48	=48	=48	=48	=48	=48	=48	=48	=48
2r	.	4~g-	good	2E-m	.	voice	.	106.324	E-:min
.	.	8~e-	for?	.	.	.	.	.	.
.	.	8r	.	.	.	.	.	.	.
8d-	ab-	2r	.	2G-M	.	voice	.	107.421	G-:maj
8e-	-so-	.	.	.	.	.	.	.	.
8e-	-lu-	.	.	.	.	.	.	.	.
8d-	-tely	.	.	.	.	.	.	.	.
=49	=49	=49	=49	=49	=49	=49	=49	=49	=49
8r	.	16~e-	No-	2E-m	.	voice	.	108.518	E-:1
.	.	16~G-	-thin'	.	.	.	.	.	.
16~G-	Lis-	8r	.	.	.	.	.	.	.
16~G-	-ten	.	.	.	.	.	.	.	.
16~E-	to	4r	.	.	.	.	.	.	.
16~GG-	me	.	.	.	.	.	.	.	.
8r	.	.	.	.	.	.	.	.	.
2r	.	2r	.	4A-m	.	voice	.	109.615	A-:1
.	.	.	.	4G-M	.	voice	.	110.163	G-:maj
=50	=50	=50	=50	=50	=50	=50	=50	=50	=50
*clefG2	*	*	*	*	*	*	*	*	*
4r	.	8e-	War	2E-m	newline	voice	.	110.712	E-:min
.	.	8r	.	.	.	.	.	.	.
16r	.	4r	.	.	.	.	.	.	.
16g-	It	.	.	.	.	.	.	.	.
8a-	ain't	.	.	.	.	.	.	.	.
8b-	no-	2r	.	2G-M	.	voice	.	111.811	G-:maj
8a-	-thin'	.	.	.	.	.	.	.	.
16g-	but	.	.	.	.	.	.	.	.
16a-	a	.	.	.	.	.	.	.	.
16b-	heart-	.	.	.	.	.	.	.	.
16a-	_	.	.	.	.	.	.	.	.
=51	=51	=51	=51	=51	=51	=51	=51	=51	=51
8g-	_	1r	.	2E-m	.	voice	.	112.911	E-:1
8.e-	-break	.	.	.	.	.	(B	.	.
8.d-	Uh	.	.	.	.	.	b)	.	.
2r	.	.	.	4A-m	.	voice	.	114.011	A-:1
.	.	.	.	4G-M	.	voice	.	114.56	G-:maj
=52	=52	=52	=52	=52	=52	=52	=52	=52	=52
4r	.	8e- 8g-	War	2E-m	.	voice	.	115.11	E-:min
.	.	8r	.	.	.	.	.	.	.
16a-	It's	4r	.	.	.	.	.	.	.
8b-	got	.	.	.	.	.	.	.	.
[16dd-	one	.	.	.	.	.	.	.	.
8dd-]	_	2r	.	2G-M	.	voice	.	116.21	G-:maj
16a-	friend	.	.	.	.	.	.	.	.
16g-	_	.	.	.	.	.	.	.	.
12e-	_	.	.	.	.	.	.	.	.
12e-	that's	.	.	.	.	.	.	.	.
12e-	the	.	.	.	.	.	.	.	.
=53	=53	=53	=53	=53	=53	=53	=53	=53	=53
16g-	un-	1r	.	2E-m	.	voice	.	117.31	E-:1
8e-	-der-	.	.	.	.	.	.	.	.
8.e-	-ta-	.	.	.	.	.	(B	.	.
24B-	-ker	.	.	.	.	.	b)	.	.
24A-	_	.	.	.	.	.	.	.	.
24G-	_	.	.	.	.	.	.	.	.
8r	.	.	.	4A-m	.	voice	.	118.409	A-:1
*clefG2	*	*	*	*	*	*	*	*	*
4.ee-	Ah	.	.	.	.	.	.	.	.
.	.	.	.	4G-M	.	voice	.	118.959	G-:maj
=54	=54	=54	=54	=54	=54	=54	=54	=54	=54
*>Letter>C	*>Letter>C	*>Letter>C	*>Letter>C	*>Letter>C	*>Letter>C	*>Letter>C	*>Letter>C	*>Letter>C	*>Letter>C
*>Label>Verse	*>Label>Verse	*>Label>Verse	*>Label>Verse	*>Label>Verse	*>Label>Verse	*>Label>Verse	*>Label>Verse	*>Label>Verse	*>Label>Verse
4ee-	war!	1r	.	1E-m	newline	voice	.	119.509	E-:min
8r	.	.	.	.	.	.	.	.	.
8b-	has	.	.	.	.	.	.	.	.
8a-	sha-	.	.	.	.	.	.	.	.
8b-	-ttered	.	.	.	.	.	.	.	.
4r	.	.	.	.	.	.	.	.	.
=55	=55	=55	=55	=55	=55	=55	=55	=55	=55
16g-	ma-	1r	.	1E-m	.	voice	.	121.739	E-:min
16e-	-ny	.	.	.	.	.	.	.	.
16e-	a	.	.	.	.	.	.	.	.
8e-	young	.	.	.	.	.	.	.	.
8.e-	man's	.	.	.	.	.	.	.	.
16e-	dreams	.	.	.	.	.	D	.	.
16d-	_	.	.	.	.	.	.	.	.
8B-	_	.	.	.	.	.	.	.	.
4r	.	.	.	.	.	.	.	.	.
=56	=56	=56	=56	=56	=56	=56	=56	=56	=56
16r	.	1r	.	1E-m	.	voice	.	123.97	E-:min
8e-	Made	.	.	.	.	.	.	.	.
8g-	him	.	.	.	.	.	.	.	.
8a-	dis-	.	.	.	.	.	.	.	.
8dd-	-a-	.	.	.	.	.	.	.	.
16b-	-bled	.	.	.	.	.	.	.	.
16a-	_	.	.	.	.	.	.	.	.
16g-	_	.	.	.	.	.	.	.	.
8e-	_	.	.	.	.	.	.	.	.
8r	.	.	.	.	.	.	.	.	.
=57	=57	=57	=57	=57	=57	=57	=57	=57	=57
16g-	bit-	1r	.	1E-m	.	voice	.	126.2	E-:min
8e-	-ter	.	.	.	.	.	.	.	.
8.e-	and	.	.	.	.	.	.	.	.
8e-	mean	.	.	.	.	.	D	.	.
4.r	.	.	.	.	.	.	.	.	.
8~ee-	Life	.	.	.	.	.	.	.	.
=58	=58	=58	=58	=58	=58	=58	=58	=58	=58
10~ee-	is	1r	.	1E-m	newline	voice	.	128.431	E-:min
10a-	much	.	.	.	.	.	.	.	.
10g-	to	.	.	.	.	.	.	.	.
10a-	short	.	.	.	.	.	.	.	.
10b-	and	.	.	.	.	.	.	.	.
16g-	pre-	.	.	.	.	.	.	.	.
8e-	-cious	.	.	.	.	.	.	.	.
16r	.	.	.	.	.	.	.	.	.
16r	.	.	.	.	.	.	.	.	.
16e-	to	.	.	.	.	.	.	.	.
8e-	spend	.	.	.	.	.	.	.	.
=59	=59	=59	=59	=59	=59	=59	=59	=59	=59
16~b-	fight-	1r	.	1E-m	.	voice	.	130.695	E-:min
8b-	-ing	.	.	.	.	.	.	.	.
8g-	wars	.	.	.	.	.	.	.	.
8e-	these	.	.	.	.	.	.	.	.
16e-	days	.	.	.	.	.	B	.	.
16d-	_	.	.	.	.	.	.	.	.
16B-	_	.	.	.	.	.	.	.	.
8r	.	.	.	.	.	.	.	.	.
4r	.	.	.	.	.	.	.	.	.
=60	=60	=60	=60	=60	=60	=60	=60	=60	=60
6a-	War	1r	.	1E-m	.	voice	.	132.959	E-:min
6g-	can't	.	.	.	.	.	.	.	.
6a-	give	.	.	.	.	.	.	.	.
4b-	life	.	.	.	.	.	.	.	.
16r	.	.	.	.	.	.	.	.	.
16dd-	it	.	.	.	.	.	.	.	.
16dd-	can	.	.	.	.	.	.	.	.
[16ee-	on-	.	.	.	.	.	.	.	.
=61	=61	=61	=61	=61	=61	=61	=61	=61	=61
8ee-]	_	1r	.	1E-m	.	voice	.	135.224	E-:min
16dd-	-ly	.	.	.	.	.	.	.	.
8b-	take	.	.	.	.	.	.	.	.
16a-	it	.	.	.	.	.	.	.	.
16g-	a-	.	.	.	.	.	.	.	.
16b-	-way	.	.	.	.	.	B	.	.
8r	.	.	.	.	.	.	.	.	.
*clefG2	*	*	*	*	*	*	*	*	*
4.ee-	Ah	.	.	.	.	.	.	.	.
=62	=62	=62	=62	=62	=62	=62	=62	=62	=62
*>Letter>B	*>Letter>B	*>Letter>B	*>Letter>B	*>Letter>B	*>Letter>B	*>Letter>B	*>Letter>B	*>Letter>B	*>Letter>B
*>Label>Chorus	*>Label>Chorus	*>Label>Chorus	*>Label>Chorus	*>Label>Chorus	*>Label>Chorus	*>Label>Chorus	*>Label>Chorus	*>Label>Chorus	*>Label>Chorus
4ee-	war!	8e-	War	2E-m	newline	voice	.	137.488	E-:min
.	.	8r	.	.	.	.	.	.	.
4r	.	4r	.	.	.	.	.	.	.
*clefF4	*	*	*	*	*	*	*	*	*
8r	.	8~e-	Huh!	2G-M	.	voice	.	138.588	G-:maj
8~G-	Good	8r	.	.	.	.	.	.	.
4~E-	god	4r	.	.	.	.	.	.	.
=63	=63	=63	=63	=63	=63	=63	=63	=63	=63
4~GG-	ya'll!	2r	.	2E-m	.	voice	.	139.688	E-:1
4r	.	.	.	.	.	.	.	.	.
2r	.	8d-	What	4A-m	.	voice	.	140.788	A-:1
.	.	4e-	is	.	.	.	.	.	.
.	.	.	.	4G-M	.	voice	.	141.338	G-:maj
.	.	8d-	it	.	.	.	.	.	.
=64	=64	=64	=64	=64	=64	=64	=64	=64	=64
2r	.	4~g-	good	2E-m	.	voice	.	141.889	E-:min
.	.	8~e-	for?	.	.	.	.	.	.
.	.	8r	.	.	.	.	.	.	.
8d-	ab-	2r	.	2G-M	.	voice	.	142.989	G-:maj
8e-	-so-	.	.	.	.	.	.	.	.
8e-	-lu-	.	.	.	.	.	.	.	.
8d-	-tely	.	.	.	.	.	.	.	.
=65	=65	=65	=65	=65	=65	=65	=65	=65	=65
4r	.	16~e-	No-	2E-m	.	voice	.	144.089	E-:1
.	.	16~G-	-thin'	.	.	.	.	.	.
.	.	8r	.	.	.	.	.	.	.
16g-	Say	4r	.	.	.	.	.	.	.
16g-	it	.	.	.	.	.	.	.	.
16g-	a-	.	.	.	.	.	.	.	.
[16e-	-gain	.	.	.	.	.	.	.	.
8e-]	_	2r	.	4A-m	.	voice	.	145.189	A-:1
8r	.	.	.	.	.	.	.	.	.
4r	.	.	.	4G-M	.	voice	.	145.739	G-:maj
=66	=66	=66	=66	=66	=66	=66	=66	=66	=66
4.r	.	8e-	War	2E-m	newline	voice	.	146.289	E-:min
.	.	8r	.	.	.	.	.	.	.
.	.	4r	.	.	.	.	.	.	.
8B-	Ooh	.	.	.	.	.	.	.	.
8d-	Woh	8~e-	Huh!	2G-M	.	voice	.	147.391	G-:maj
8e-	_	8r	.	.	.	.	.	.	.
8e-	woh	4r	.	.	.	.	.	.	.
8g-	_	.	.	.	.	.	.	.	.
=67	=67	=67	=67	=67	=67	=67	=67	=67	=67
8g-	woh	2r	.	2E-m	.	voice	.	148.494	E-:1
8e-	_	.	.	.	.	.	.	.	.
16e-	Lord	.	.	.	.	.	.	.	.
16d-	_	.	.	.	.	.	.	.	.
8B-	_	.	.	.	.	.	.	.	.
2r	.	8d-	What	4A-m	.	voice	.	149.596	A-:1
.	.	4e-	is	.	.	.	.	.	.
.	.	.	.	4G-M	.	voice	.	150.147	G-:maj
.	.	8d-	it	.	.	.	.	.	.
=68	=68	=68	=68	=68	=68	=68	=68	=68	=68
4.r	.	4~g-	good	2E-m	.	voice	.	150.698	E-:min
.	.	8~e-	for?	.	.	.	.	.	.
8B-	Ah	8r	.	.	.	.	.	.	.
8d-	ab-	2r	.	2G-M	.	voice	.	151.8	G-:maj
8e-	-so-	.	.	.	.	.	.	.	.
8e-	-lu-	.	.	.	.	.	.	.	.
8d-	-tely	.	.	.	.	.	.	.	.
=69	=69	=69	=69	=69	=69	=69	=69	=69	=69
8r	.	16~e-	No-	2E-m	.	voice	.	152.903	E-:1
.	.	16~G-	-thin'	.	.	.	.	.	.
16~G-	Lis-	8r	.	.	.	.	.	.	.
16~G-	-ten	.	.	.	.	.	.	.	.
16~E-	to	4r	.	.	.	.	.	.	.
16~GG-	me	.	.	.	.	.	.	.	.
8r	.	.	.	.	.	.	.	.	.
2r	.	2r	.	4A-m	.	voice	.	154.005	A-:1
.	.	.	.	4G-M	.	voice	.	154.556	G-:maj
=70	=70	=70	=70	=70	=70	=70	=70	=70	=70
*clefG2	*	*	*	*	*	*	*	*	*
4r	.	8e- 8g-	War	2E-m	newline	voice	.	155.107	E-:min
.	.	8r	.	.	.	.	.	.	.
16r	.	4r	.	.	.	.	.	.	.
16g-	It	.	.	.	.	.	.	.	.
8a-	ain't	.	.	.	.	.	.	.	.
8b-	no-	2r	.	2G-M	.	voice	.	156.214	G-:maj
8a-	-thin'	.	.	.	.	.	.	.	.
16g-	but	.	.	.	.	.	.	.	.
16a-	a	.	.	.	.	.	.	.	.
16b-	heart-	.	.	.	.	.	.	.	.
16a-	_	.	.	.	.	.	.	.	.
=71	=71	=71	=71	=71	=71	=71	=71	=71	=71
8g-	_	1r	.	2E-m	.	voice	.	157.322	E-:1
8.e-	-break	.	.	.	.	.	(B	.	.
8.d-	Uh	.	.	.	.	.	b)	.	.
2r	.	.	.	4A-m	.	voice	.	158.429	A-:1
.	.	.	.	4G-M	.	voice	.	158.983	G-:maj
=72	=72	=72	=72	=72	=72	=72	=72	=72	=72
4r	.	8e- 8g-	War	2E-m	.	voice	.	159.536	E-:min
.	.	8r	.	.	.	.	.	.	.
4~b-	Friend	4r	.	.	.	.	.	.	.
8~b-	on-	2r	.	2G-M	.	voice	.	160.644	G-:maj
8~e-	-ly	.	.	.	.	.	.	.	.
8r	.	.	.	.	.	.	.	.	.
16~g-	to	.	.	.	.	.	.	.	.
16~a-	the	.	.	.	.	.	.	.	.
=73	=73	=73	=73	=73	=73	=73	=73	=73	=73
16~b-	un-	1r	.	2E-m	.	voice	.	161.751	E-:1
8~g-	-der-	.	.	.	.	.	.	.	.
16~g-	-ta-	.	.	.	.	.	(B	.	.
8~e-	-ker	.	.	.	.	.	b)	.	.
8r	.	.	.	.	.	.	.	.	.
8r	.	.	.	4A-m	.	voice	.	162.858	A-:1
*clefG2	*	*	*	*	*	*	*	*	*
4bb-	Wooh!	.	.	.	.	.	.	.	.
.	.	.	.	4G-M	.	voice	.	163.412	G-:maj
8r	.	.	.	.	.	.	.	.	.
=74	=74	=74	=74	=74	=74	=74	=74	=74	=74
*>Letter>C	*>Letter>C	*>Letter>C	*>Letter>C	*>Letter>C	*>Letter>C	*>Letter>C	*>Letter>C	*>Letter>C	*>Letter>C
*>Label>Verse	*>Label>Verse	*>Label>Verse	*>Label>Verse	*>Label>Verse	*>Label>Verse	*>Label>Verse	*>Label>Verse	*>Label>Verse	*>Label>Verse
4r	.	1r	.	1E-m	newline	voice	.	163.966	E-:min
4g-	Peace	.	.	.	.	.	.	.	.
8g-	love	.	.	.	.	.	.	.	.
8g-	and	.	.	.	.	.	.	.	.
8g-	un-	.	.	.	.	.	.	.	.
8g-	-der-	.	.	.	.	.	.	.	.
=75	=75	=75	=75	=75	=75	=75	=75	=75	=75
8g-	-stand-	1r	.	1E-m	.	voice	.	166.211	E-:min
8e-	_	.	.	.	.	.	.	.	.
8e-	-ing	.	.	.	.	.	.	.	.
4e-	Tell	.	.	.	.	.	.	.	.
8d-	me	.	.	.	.	.	.	.	.
8r	.	.	.	.	.	.	.	.	.
[8ee-	is	.	.	.	.	.	.	.	.
=76	=76	=76	=76	=76	=76	=76	=76	=76	=76
8ee-]	_	1r	.	1E-m	.	voice	.	168.456	E-:min
8dd-	there	.	.	.	.	.	.	.	.
8b-	no	.	.	.	.	.	.	.	.
16a-	place	.	.	.	.	.	.	.	.
16g-	_	.	.	.	.	.	.	.	.
8e-	_	.	.	.	.	.	.	.	.
16e-	for	.	.	.	.	.	.	.	.
8e-	them	.	.	.	.	.	.	.	.
16d-	to-	.	.	.	.	.	.	.	.
8d-	-day?	.	.	.	.	.	B	.	.
=77	=77	=77	=77	=77	=77	=77	=77	=77	=77
2r	.	1r	.	1E-m	.	voice	.	170.701	E-:min
4.r	.	.	.	.	.	.	.	.	.
8g-	They	.	.	.	.	.	.	.	.
=78	=78	=78	=78	=78	=78	=78	=78	=78	=78
8b-	say	1r	.	1E-m	newline	voice	.	172.946	E-:min
8a-	we	.	.	.	.	.	.	.	.
8g-	must	.	.	.	.	.	.	.	.
16b-	fight	.	.	.	.	.	.	.	.
16a-	_	.	.	.	.	.	.	.	.
8b-	_	.	.	.	.	.	.	.	.
8r	.	.	.	.	.	.	.	.	.
8r	.	.	.	.	.	.	.	.	.
8e-	to	.	.	.	.	.	.	.	.
=79	=79	=79	=79	=79	=79	=79	=79	=79	=79
8g-	keep	1r	.	1E-m	.	voice	.	175.226	E-:min
4g-	our	.	.	.	.	.	.	.	.
8g-	free-	.	.	.	.	.	.	.	.
8e-	-dom	.	.	.	.	.	.	.	.
8d-	but	.	.	.	.	.	.	.	.
8e-	Lord	.	.	.	.	.	.	.	.
8r	.	.	.	.	.	.	.	.	.
=80	=80	=80	=80	=80	=80	=80	=80	=80	=80
8b-	knows	1r	.	1E-m	.	voice	.	177.505	E-:min
8a-	there's	.	.	.	.	.	.	.	.
8a-	got	.	.	.	.	.	.	.	.
8g-	to	.	.	.	.	.	.	.	.
8a-	be	.	.	.	.	.	.	.	.
8g-	a	.	.	.	.	.	.	.	.
8e-	bet-	.	.	.	.	.	.	.	.
8d-	-ter	.	.	.	.	.	.	.	.
=81	=81	=81	=81	=81	=81	=81	=81	=81	=81
16e-	way	1r	.	1E-m	.	voice	B	179.785	E-:min
16d-	_	.	.	.	.	.	.	.	.
8r	.	.	.	.	.	.	.	.	.
2ee-	Ah	.	.	.	.	.	.	.	.
4r	.	.	.	.	.	.	.	.	.
=82	=82	=82	=82	=82	=82	=82	=82	=82	=82
*>Letter>B	*>Letter>B	*>Letter>B	*>Letter>B	*>Letter>B	*>Letter>B	*>Letter>B	*>Letter>B	*>Letter>B	*>Letter>B
*>Label>Chorus	*>Label>Chorus	*>Label>Chorus	*>Label>Chorus	*>Label>Chorus	*>Label>Chorus	*>Label>Chorus	*>Label>Chorus	*>Label>Chorus	*>Label>Chorus
4ee-	war!	8e-	War	2E-m	newline	voice	.	182.064	E-:min
.	.	8r	.	.	.	.	.	.	.
*clefF4	*	*	*	*	*	*	*	*	*
4r	.	4r	.	.	.	.	.	.	.
4~E-	god	8~e-	Huh!	2G-M	.	voice	.	183.17	G-:maj
.	.	8r	.	.	.	.	.	.	.
4~GG-	ya'll!	4r	.	.	.	.	.	.	.
=83	=83	=83	=83	=83	=83	=83	=83	=83	=83
1r	.	2r	.	2E-m	.	voice	.	184.276	E-:1
.	.	8d-	What	4A-m	.	voice	.	185.383	A-:1
.	.	4e-	is	.	.	.	.	.	.
.	.	.	.	4G-M	.	voice	.	185.936	G-:maj
.	.	8d-	it	.	.	.	.	.	.
=84	=84	=84	=84	=84	=84	=84	=84	=84	=84
4.r	.	4~g-	good	2E-m	.	voice	.	186.489	E-:min
.	.	8~e-	for?	.	.	.	.	.	.
8~G-	You	8r	.	.	.	.	.	.	.
8~E-	tell	2r	.	2G-M	.	voice	.	187.595	G-:maj
8~GG-	me	.	.	.	.	.	.	.	.
4r	.	.	.	.	.	.	.	.	.
=85	=85	=85	=85	=85	=85	=85	=85	=85	=85
*clefG2	*	*	*	*	*	*	*	*	*
16e-	Say	16~e-	No-	2E-m	.	voice	.	188.701	E-:1
16e-	it	16~G-	-thin'	.	.	.	.	.	.
16r	.	8r	.	.	.	.	.	.	.
16g-	say	.	.	.	.	.	.	.	.
16g-	it	4r	.	.	.	.	.	.	.
16r	.	.	.	.	.	.	.	.	.
16a-	say	.	.	.	.	.	.	.	.
16a-	it!	.	.	.	.	.	.	.	.
8r	.	2r	.	4A-m	.	voice	.	189.807	A-:1
8b-	say	.	.	.	.	.	.	.	.
16a-	_	.	.	4G-M	.	voice	.	190.36	G-:maj
16g-	_	.	.	.	.	.	.	.	.
8e-	it	.	.	.	.	.	.	.	.
=86	=86	=86	=86	=86	=86	=86	=86	=86	=86
*>Label>>Fadeout	*>Label>>Fadeout	*>Label>>Fadeout	*>Label>>Fadeout	*>Label>>Fadeout	*>Label>>Fadeout	*>Label>>Fadeout	*>Label>>Fadeout	*>Label>>Fadeout	*>Label>>Fadeout
4r	.	8e-	War	2E-m	newline	voice	.	190.913	E-:min
.	.	8r	.	.	.	.	.	.	.
8r	.	4r	.	.	.	.	.	.	.
8~G-	Good	.	.	.	.	.	.	.	.
4~E-	god	8~e-	Huh!	2G-M	.	voice	.	192.017	G-:maj
.	.	8r	.	.	.	.	.	.	.
4~GG-	man!	4r	.	.	.	.	.	.	.
=87	=87	=87	=87	=87	=87	=87	=87	=87	=87
4r	.	2r	.	2E-m	.	voice	.	193.12	E-:1
8r	.	.	.	.	.	.	.	.	.
8~E-	Huh!	.	.	.	.	.	.	.	.
2r	.	8d-	What	4A-m	.	voice	.	194.224	A-:1
.	.	4e-	is	.	.	.	.	.	.
.	.	.	.	4G-M	.	voice	.	194.776	G-:maj
.	.	8d-	it	.	.	.	.	.	.
=88	=88	=88	=88	=88	=88	=88	=88	=88	=88
2r	.	4~g-	good	2E-m	.	voice	.	195.327	E-:min
.	.	8~e-	for?	.	.	.	.	.	.
.	.	8r	.	.	.	.	.	.	.
16d-	Stand	2r	.	2G-M	.	voice	.	196.431	G-:maj
8d-	up	.	.	.	.	.	.	.	.
16d-	and	.	.	.	.	.	.	.	.
8d-	shout	.	.	.	.	.	.	.	.
8B-	it	.	.	.	.	.	.	.	.
=89	=89	=89	=89	=89	=89	=89	=89	=89	=89
1r	.	16~e-	No-	2E-m	.	voice	.	197.534	E-:1
.	.	16~G-	-thin'	.	.	.	.	.	.
.	.	8r	.	.	.	.	.	.	.
.	.	4r	.	.	.	.	.	.	.
.	.	2r	.	4A-m	.	voice	.	198.638	A-:1
.	.	.	.	4G-M	.	voice	.	199.19	G-:maj
=90	=90	=90	=90	=90	=90	=90	=90	=90	=90
1r	.	1r	.	2E-m	newline	voice	.	199.741	E-:min
.	.	.	.	2G-M	.	voice	.	200.581	G-:maj
=91	=91	=91	=91	=91	=91	=91	=91	=91	=91
1r	.	1r	.	2E-m	.	voice	.	201.42	E-:1
.	.	.	.	4A-m	.	voice	.	202.259	A-:1
.	.	.	.	4G-M	.	voice	.	202.679	G-:maj
=92	=92	=92	=92	=92	=92	=92	=92	=92	=92
1r	.	1r	.	2E-m	.	voice	.	203.098	E-:min
.	.	.	.	2G-M	.	voice	.	203.938	G-:maj
r;	.	r;	.	1r;	.	r	.	204.777	N.C.
r;	.	r;	.	1r;	.	r	.	208.744	N.C.
*-	*-	*-	*-	*-	*-	*-	*-	*-	*-
!!!BillboardChartDate: 1970/07/25
!!!BillboardPeak: 1
!!!BillboardWeeksOnChart: 15
!!!COC: Edwin Starr
!!!EMD: Changed key to Eb minor, and changed [EA]:1 interpreted as major to minor; changed first two measures of N (drum roll) to 1 measure with fermata (its really rubato) - Nat Condit-Schultz 2017-01-26
!!!ENC: Nathaniel Condit-Schultz
!!!EST: Awating manual error checking and editing.
!!!OTL: War
!!!RDF**chordsym: original McGill chord annotation + (implied pitch class set, with bass pitch in first position)
!!!RDF**harmony: **recip + pitch class of root + harmonic quality
!!!RDF**leadinstrument: original McGill primary instrumentation annotation
!!!RDF**phrase: newline = linebreak in original McGill transcription
!!!RDF**timestamp: McGill audio timestamp in seconds
!!!RDT: 2017/01/12/
!!!SampleActualRank: 25
!!!SampleID#: 0893
!!!SampleTargetRank: 24
